X: 64
T: Miss Chrlotte Dundas's Strathspey
R: strathspey
Q: "Slowish"
B: William Shepherd "1st Collection" 1793 p.6 #4
F: http://imslp.org/wiki/File:PMLP73094-Shepherd_Collections_HMT.pdf
C: William Shepherd (17??-1812)
Z: 2012 John Chambers <jc:trillian.mit.edu>
M: C
L: 1/16
K: Bb
B2 |\
B,3B edcB A3cc3f | B,3Bd3B f3Bd3B |\
e3c edcB A3cc3g | f3de3c d3BB3F |
B,3B edcB A3cc3f | B,3Bd3B f3Bd3B |\
E3cD3B C3DE3G | F3Ac2de d2B2B2 ||
g2 |\
f3B edcB F2AB c3A | f3Bd3B f3Bd3B |\
e3gd3f F2ABc2A2 | E3GF2D2 B,2B2B2g2 |
f3B edcB F2AB c3A | f3Bd3B f3Bd3B |\
e2ge d2fd F2AB c3A | E2C2 DEFE DB,3 B,2 |]
